src/lib/packages/icons/src/assets/line/folder-ban.svg

<svg width="24" height="24" viewBox="0 0 24 24" fill="none" xmlns="http://www.w3.org/2000/svg">
<path d="M18 6.25H13.311L10.531 3.47C10.39 3.329 10.2 3.25 10.001 3.25H6.00098C3.58298 3.25 2.25098 4.582 2.25098 7V17C2.25098 19.418 3.58298 20.75 6.00098 20.75H18.001C20.419 20.75 21.751 19.418 21.751 17V10C21.75 7.582 20.418 6.25 18 6.25ZM20.25 17C20.25 18.577 19.577 19.25 18 19.25H6C4.423 19.25 3.75 18.577 3.75 17V7C3.75 5.423 4.423 4.75 6 4.75H9.68896L12.469 7.53C12.61 7.671 12.8 7.75 12.999 7.75H17.999C19.576 7.75 20.249 8.423 20.249 10V17H20.25ZM12 9.25C9.656 9.25 7.75 11.156 7.75 13.5C7.75 15.844 9.656 17.75 12 17.75C14.344 17.75 16.25 15.844 16.25 13.5C16.25 11.156 14.344 9.25 12 9.25ZM12 10.75C12.485 10.75 12.9351 10.887 13.3311 11.108L9.60889 14.831C9.38789 14.435 9.25 13.985 9.25 13.5C9.25 11.984 10.483 10.75 12 10.75ZM12 16.25C11.515 16.25 11.0649 16.113 10.6689 15.892L14.3911 12.169C14.6121 12.565 14.75 13.015 14.75 13.5C14.75 15.016 13.517 16.25 12 16.25Z" fill="currentColor"/>
</svg>

<svg xmlns="http://www.w3.org/2000/svg" width="24" height="24" fill="none"><path fill="currentColor" d="M18 6.25h-4.689l-2.78-2.78a.749.749 0 0 0-.53-.22h-4c-2.418 0-3.75 1.332-3.75 3.75v10c0 2.418 1.332 3.75 3.75 3.75h12c2.418 0 3.75-1.332 3.75-3.75v-7C21.75 7.582 20.418 6.25 18 6.25ZM20.25 17c0 1.577-.673 2.25-2.25 2.25H6c-1.577 0-2.25-.673-2.25-2.25V7c0-1.577.673-2.25 2.25-2.25h3.689l2.78 2.78c.141.141.331.22.53.22h5c1.577 0 2.25.673 2.25 2.25v7h.001ZM12 9.25a4.254 4.254 0 0 0-4.25 4.25A4.254 4.254 0 0 0 12 17.75a4.254 4.254 0 0 0 4.25-4.25A4.254 4.254 0 0 0 12 9.25Zm0 1.5c.485 0 .935.137 1.331.358L9.61 14.831a2.722 2.722 0 0 1-.36-1.331A2.753 2.753 0 0 1 12 10.75Zm0 5.5a2.72 2.72 0 0 1-1.331-.358l3.722-3.723c.221.396.359.846.359 1.331A2.753 2.753 0 0 1 12 16.25Z"/></svg>
